mimes/48/image-bmp.svg

<?xml version="1.0" encoding="UTF-8" standalone="no"?>
<!-- Created with Inkscape (http://www.inkscape.org/) -->

<svg
   xmlns:svg="http://www.w3.org/2000/svg"
   xmlns="http://www.w3.org/2000/svg"
   xmlns:xlink="http://www.w3.org/1999/xlink"
   version="1.0"
   width="48"
   height="48"
   id="svg2453">
  <defs
     id="defs2455">
    <radialGradient
       cx="605.71429"
       cy="486.64789"
       r="117.14286"
       fx="605.71429"
       fy="486.64789"
       id="radialGradient19613"
       xlink:href="#linearGradient5060"
       gradientUnits="userSpaceOnUse"
       gradientTransform="matrix(0.02891661,0,0,0.01235294,26.973101,38.470848)" />
    <linearGradient
       id="linearGradient5060">
      <stop
         id="stop5062"
         style="stop-color:#000000;stop-opacity:1"
         offset="0" />
      <stop
         id="stop5064"
         style="stop-color:#000000;stop-opacity:0"
         offset="1" />
    </linearGradient>
    <radialGradient
       cx="605.71429"
       cy="486.64789"
       r="117.14286"
       fx="605.71429"
       fy="486.64789"
       id="radialGradient19616"
       xlink:href="#linearGradient5060"
       gradientUnits="userSpaceOnUse"
       gradientTransform="matrix(-0.0289166,0,0,0.01235294,21.026894,38.470848)" />
    <linearGradient
       id="linearGradient5048">
      <stop
         id="stop5050"
         style="stop-color:#000000;stop-opacity:0"
         offset="0" />
      <stop
         id="stop5056"
         style="stop-color:#000000;stop-opacity:1"
         offset="0.5" />
      <stop
         id="stop5052"
         style="stop-color:#000000;stop-opacity:0"
         offset="1" />
    </linearGradient>
    <linearGradient
       x1="302.85715"
       y1="366.64789"
       x2="302.85715"
       y2="609.50507"
       id="linearGradient19619"
       xlink:href="#linearGradient5048"
       gradientUnits="userSpaceOnUse"
       gradientTransform="matrix(0.08449704,0,0,0.01235294,-6.5396456,38.470822)" />
    <linearGradient
       id="linearGradient259-942">
      <stop
         id="stop3802"
         style="stop-color:#ffffff;stop-opacity:1"
         offset="0" />
      <stop
         id="stop3804"
         style="stop-color:#e0e0e0;stop-opacity:1"
         offset="1" />
    </linearGradient>
    <linearGradient
       x1="108.26451"
       y1="110.28094"
       x2="25.817675"
       y2="14.029031"
       id="linearGradient2447"
       xlink:href="#linearGradient259-942"
       gradientUnits="userSpaceOnUse"
       gradientTransform="matrix(0.5066363,0,0,0.3512482,-58.338079,-49.085984)" />
    <linearGradient
       id="linearGradient3610-302">
      <stop
         id="stop3796"
         style="stop-color:#333333;stop-opacity:1"
         offset="0" />
      <stop
         id="stop3798"
         style="stop-color:#292929;stop-opacity:1"
         offset="1" />
    </linearGradient>
    <linearGradient
       x1="-24.032034"
       y1="-13.090545"
       x2="-24.097931"
       y2="-40.163883"
       id="linearGradient2444"
       xlink:href="#linearGradient3610-302"
       gradientUnits="userSpaceOnUse"
       gradientTransform="matrix(1.1142851,0,0,1.1111113,2.7514431,3.5103428)" />
    <linearGradient
       id="linearGradient4157-401-351">
      <stop
         id="stop3790"
         style="stop-color:#262626;stop-opacity:1"
         offset="0" />
      <stop
         id="stop3792"
         style="stop-color:#828282;stop-opacity:1"
         offset="1" />
    </linearGradient>
    <linearGradient
       x1="28.938274"
       y1="17.33289"
       x2="105.36545"
       y2="92.823723"
       id="linearGradient2442"
       xlink:href="#linearGradient4157-401-351"
       gradientUnits="userSpaceOnUse"
       gradientTransform="matrix(0.4908393,0,0,0.3803351,-57.357124,-48.338393)" />
    <linearGradient
       x1="19.857143"
       y1="33.986282"
       x2="19.857143"
       y2="38.430866"
       id="linearGradient20332"
       xlink:href="#linearGradient20326"
       gradientUnits="userSpaceOnUse"
       gradientTransform="translate(0,-1.0175847)" />
    <linearGradient
       id="linearGradient20326">
      <stop
         id="stop20328"
         style="stop-color:#ffffff;stop-opacity:1"
         offset="0" />
      <stop
         id="stop20330"
         style="stop-color:#ffffff;stop-opacity:0"
         offset="1" />
    </linearGradient>
  </defs>
  <g
     id="layer1">
    <g
       id="g3257"
       style="opacity:0.4">
      <rect
         width="40.799999"
         height="2.9999998"
         x="3.5999999"
         y="43"
         id="rect2879"
         style="fill:url(#linearGradient19619);fill-opacity:1;fill-rule:nonzero;stroke:none;stroke-width:1;marker:none;visibility:visible;display:inline;overflow:visible" />
      <path
         d="m 3.6,43.00013 c 0,0 0,2.999835 0,2.999835 C 2.1108662,46.005612 0,45.327854 0,44.499854 0,43.671856 1.6617608,43.000131 3.6,43.00013 z"
         id="path2881"
         style="fill:url(#radialGradient19616);fill-opacity:1;fill-rule:nonzero;stroke:none;stroke-width:1;marker:none;visibility:visible;display:inline;overflow:visible" />
      <path
         d="m 44.4,43.00013 c 0,0 0,2.999835 0,2.999835 1.489133,0.0056 3.6,-0.672111 3.6,-1.500111 0,-0.827998 -1.661761,-1.499723 -3.6,-1.499724 z"
         id="path2883"
         style="fill:url(#radialGradient19613);fill-opacity:1;fill-rule:nonzero;stroke:none;stroke-width:1;marker:none;visibility:visible;display:inline;overflow:visible" />
    </g>
    <rect
       width="44.965565"
       height="35.922085"
       x="-46.457321"
       y="-44.502605"
       transform="matrix(-0.9999985,0.00173317,-9.6052603e-4,-0.9999995,0,0)"
       id="rect3580"
       style="fill:url(#linearGradient2447);fill-opacity:1;stroke:#c1c1c1;stroke-width:0.99999994;stroke-linecap:round;stroke-linejoin:miter;stroke-miterlimit:4;stroke-opacity:0.96862745;stroke-dasharray:none" />
    <rect
       width="38.927383"
       height="29.853907"
       rx="0"
       ry="0"
       x="-43.528763"
       y="-41.517406"
       transform="matrix(-0.9999929,0.00375523,0.00244093,-0.999997,0,0)"
       id="rect3582"
       style="fill:url(#linearGradient2442);fill-opacity:1;stroke:url(#linearGradient2444);stroke-width:1.00000966;stroke-linecap:round;stroke-linejoin:miter;stroke-miterlimit:4;stroke-opacity:1;stroke-dasharray:none" />
  </g>
  <path
     d="m 8.0338911,20.959109 c 0,3.780234 0,7.557709 0,11.337943 -0.1354416,0.568156 0.1448422,0.730401 0.666248,0.622964 1.4768299,-0.07331 3.0234139,0.212426 4.4214639,-0.404926 1.785422,-0.774483 2.484811,-3.304967 1.271928,-4.890266 C 14.200266,26.84284 12.223803,26.604779 12.909615,26.160858 14.555332,25.08599 14.383748,22.26864 12.637059,21.395184 11.191212,20.730217 9.5694968,21.029992 8.0338911,20.959109 z m 1.150792,1.152484 c 0.7977695,0.02276 1.6083679,-0.06418 2.3924359,0.124592 1.156753,0.186807 1.623547,1.662752 1.029656,2.616449 -0.692985,1.234465 -2.225009,1.08027 -3.4220919,1.090187 0,-1.276589 0,-2.55464 0,-3.831228 z m 0,5.046008 c 1.1106379,0.02787 2.2879449,-0.0948 3.3312399,0.373778 1.362863,0.532988 1.717071,2.538107 0.60568,3.519746 -1.085708,0.97365 -2.610284,0.613569 -3.9369199,0.68526 0,-1.528655 0,-3.05013 0,-4.578784 z"
     id="path20306"
     style="font-size:16.70700264px;font-style:normal;font-variant:normal;font-weight:normal;font-stretch:normal;fill:#ffffff;fill-opacity:1;stroke:none;font-family:Century Gothic;-inkscape-font-specification:Century Gothic" />
  <path
     d="m 17,32.968699 c 0.546241,-3.995428 1.092481,-7.990856 1.638721,-11.986284 0.406532,0.01775 0.421604,0.691062 0.660185,0.990073 1.405592,2.948345 2.811184,5.89669 4.216776,8.845035 1.547245,-3.278369 3.094492,-6.556738 4.641737,-9.835108 0.400774,0.01961 0.197517,0.763416 0.339139,1.093732 0.501147,3.63085 1.002295,7.261701 1.503442,10.892552 -0.358663,-0.05057 -0.884639,0.09815 -1.145924,-0.06842 -0.373353,-2.834562 -0.746706,-5.669126 -1.120059,-8.503688 -1.359067,2.857369 -2.718134,5.714739 -4.077201,8.572108 -0.478183,0.119716 -0.470427,-0.575614 -0.704269,-0.865719 -1.239309,-2.590525 -2.478618,-5.181051 -3.717926,-7.771576 -0.373744,2.879098 -0.747488,5.758196 -1.121231,8.637295 -0.37113,0 -0.74226,0 -1.11339,0 z"
     id="path20300"
     style="font-size:16.70700264px;font-style:normal;font-variant:normal;font-weight:normal;font-stretch:normal;fill:#ffffff;fill-opacity:1;stroke:none;font-family:Century Gothic;-inkscape-font-specification:Century Gothic" />
  <path
     d="m 33,20.991874 c 0,3.968108 0,7.94284 0,11.910946 0.239599,0.16594 0.760809,0.01283 1.109404,0.06236 0,-1.510906 0,-3.041443 0,-4.552351 0.100492,-0.315525 -0.213664,-1.083746 0.233559,-1.028956 1.592538,-0.07454 3.38976,0.260418 4.729565,-0.873054 1.5929,-1.443766 1.057752,-4.673892 -1.02182,-5.269502 C 36.396086,20.834237 34.68557,21.042396 33,20.991874 z m 1.109404,1.153678 c 1.156365,0.03626 2.338078,-0.112018 3.474187,0.155903 1.46617,0.419835 1.706928,2.833858 0.379533,3.585756 -1.201802,0.570143 -2.576664,0.293355 -3.85372,0.342985 0,-1.356595 0,-2.728048 0,-4.084644 z"
     id="path20298"
     style="font-size:16.70700264px;font-style:normal;font-variant:normal;font-weight:normal;font-stretch:normal;fill:#ffffff;fill-opacity:1;stroke:none;font-family:Century Gothic;-inkscape-font-specification:Century Gothic" />
  <path
     d="m 8.0338911,44.992005 c 0,-3.780234 0,-7.557709 0,-11.337943 -0.1354416,-0.568156 0.1448422,-0.730401 0.666248,-0.622964 1.4768299,0.07331 3.0234139,-0.212426 4.4214639,0.404926 1.785422,0.774483 2.484811,3.304967 1.271928,4.890266 -0.193265,0.781984 -2.169728,1.020045 -1.483916,1.463966 1.645717,1.074868 1.474133,3.892218 -0.272556,4.765674 -1.445847,0.664967 -3.0675622,0.365192 -4.6031679,0.436075 z m 1.150792,-1.152484 c 0.7977695,-0.02276 1.6083679,0.06418 2.3924359,-0.124592 1.156753,-0.186807 1.623547,-1.662752 1.029656,-2.616449 -0.692985,-1.234465 -2.225009,-1.08027 -3.4220919,-1.090187 0,1.276589 0,2.55464 0,3.831228 z m 0,-5.046008 c 1.1106379,-0.02787 2.2879449,0.0948 3.3312399,-0.373778 1.362863,-0.532988 1.717071,-2.538107 0.60568,-3.519746 -1.085708,-0.97365 -2.610284,-0.613569 -3.9369199,-0.68526 0,1.528655 0,3.05013 0,4.578784 z M 17,32.982415 c 0.546241,3.995428 1.092481,7.990856 1.638721,11.986284 0.406532,-0.01775 0.421604,-0.691062 0.660185,-0.990073 1.405592,-2.948345 2.811184,-5.89669 4.216776,-8.845035 1.547245,3.278369 3.094492,6.556738 4.641737,9.835108 0.400774,-0.01961 0.197517,-0.763416 0.339139,-1.093732 0.501147,-3.63085 1.002295,-7.261701 1.503442,-10.892552 -0.358663,0.05058 -0.884639,-0.09815 -1.145924,0.06842 -0.373353,2.834562 -0.746706,5.669126 -1.120059,8.503688 -1.359067,-2.857369 -2.718134,-5.714739 -4.077201,-8.572108 -0.478183,-0.119716 -0.470427,0.575614 -0.704269,0.865719 -1.239309,2.590525 -2.478618,5.181051 -3.717926,7.771576 -0.373744,-2.879098 -0.747488,-5.758196 -1.121231,-8.637295 -0.37113,0 -0.74226,0 -1.11339,0 z M 33,44.95924 c 0,-3.968108 0,-7.94284 0,-11.910946 0.239599,-0.16594 0.760809,-0.01283 1.109404,-0.06236 0,1.510906 0,3.041443 0,4.552351 0.100492,0.315525 -0.213664,1.083746 0.233559,1.028956 1.592538,0.07454 3.38976,-0.260418 4.729565,0.873054 1.5929,1.443766 1.057752,4.673892 -1.02182,5.269502 C 36.396086,45.116877 34.68557,44.908718 33,44.95924 z m 1.109404,-1.153678 c 1.156365,-0.03626 2.338078,0.112018 3.474187,-0.155903 1.46617,-0.419835 1.706928,-2.833858 0.379533,-3.585756 -1.201802,-0.570143 -2.576664,-0.293355 -3.85372,-0.342985 0,1.356595 0,2.728048 0,4.084644 z"
     id="path20311"
     style="font-size:16.70700264px;font-style:normal;font-variant:normal;font-weight:normal;font-stretch:normal;opacity:0.3;fill:url(#linearGradient20332);fill-opacity:1;stroke:none;font-family:Century Gothic;-inkscape-font-specification:Century Gothic" />
</svg>

<?xml version="1.0" encoding="UTF-8" standalone="no"?>
<!-- Created with Inkscape (http://www.inkscape.org/) -->
<svg
   xmlns:svg="http://www.w3.org/2000/svg"
   xmlns="http://www.w3.org/2000/svg"
   xmlns:xlink="http://www.w3.org/1999/xlink"
   version="1.0"
   width="48"
   height="48"
   id="svg2431">
  <defs
     id="defs2433">
    <radialGradient
       cx="605.71429"
       cy="486.64789"
       r="117.14286"
       fx="605.71429"
       fy="486.64789"
       id="radialGradient19613"
       xlink:href="#linearGradient5060"
       gradientUnits="userSpaceOnUse"
       gradientTransform="matrix(2.891661e-2,0,0,1.235294e-2,26.973101,38.470848)" />
    <linearGradient
       id="linearGradient5060">
      <stop
         id="stop5062"
         style="stop-color:#000000;stop-opacity:1"
         offset="0" />
      <stop
         id="stop5064"
         style="stop-color:#000000;stop-opacity:0"
         offset="1" />
    </linearGradient>
    <radialGradient
       cx="605.71429"
       cy="486.64789"
       r="117.14286"
       fx="605.71429"
       fy="486.64789"
       id="radialGradient19616"
       xlink:href="#linearGradient5060"
       gradientUnits="userSpaceOnUse"
       gradientTransform="matrix(-2.89166e-2,0,0,1.235294e-2,21.026894,38.470848)" />
    <linearGradient
       id="linearGradient5048">
      <stop
         id="stop5050"
         style="stop-color:#000000;stop-opacity:0"
         offset="0" />
      <stop
         id="stop5056"
         style="stop-color:#000000;stop-opacity:1"
         offset="0.5" />
      <stop
         id="stop5052"
         style="stop-color:#000000;stop-opacity:0"
         offset="1" />
    </linearGradient>
    <linearGradient
       x1="302.85715"
       y1="366.64789"
       x2="302.85715"
       y2="609.50507"
       id="linearGradient19619"
       xlink:href="#linearGradient5048"
       gradientUnits="userSpaceOnUse"
       gradientTransform="matrix(8.449704e-2,0,0,1.235294e-2,-6.5396456,38.470822)" />
    <linearGradient
       id="linearGradient259-942">
      <stop
         id="stop3802"
         style="stop-color:#ffffff;stop-opacity:1"
         offset="0" />
      <stop
         id="stop3804"
         style="stop-color:#e0e0e0;stop-opacity:1"
         offset="1" />
    </linearGradient>
    <linearGradient
       x1="108.26451"
       y1="110.28094"
       x2="25.817675"
       y2="14.029031"
       id="linearGradient2425"
       xlink:href="#linearGradient259-942"
       gradientUnits="userSpaceOnUse"
       gradientTransform="matrix(0.5066363,0,0,0.3512482,-58.338079,-49.085982)" />
    <linearGradient
       id="linearGradient3610-302">
      <stop
         id="stop3796"
         style="stop-color:#333333;stop-opacity:1"
         offset="0" />
      <stop
         id="stop3798"
         style="stop-color:#292929;stop-opacity:1"
         offset="1" />
    </linearGradient>
    <linearGradient
       x1="-24.032034"
       y1="-13.090545"
       x2="-24.097931"
       y2="-40.163883"
       id="linearGradient2422"
       xlink:href="#linearGradient3610-302"
       gradientUnits="userSpaceOnUse"
       gradientTransform="matrix(1.114285,0,0,1.1111113,2.751443,3.5103427)" />
    <linearGradient
       id="linearGradient4157-401-351">
      <stop
         id="stop3790"
         style="stop-color:#262626;stop-opacity:1"
         offset="0" />
      <stop
         id="stop3792"
         style="stop-color:#828282;stop-opacity:1"
         offset="1" />
    </linearGradient>
    <linearGradient
       x1="28.938274"
       y1="17.33289"
       x2="105.36545"
       y2="92.823723"
       id="linearGradient2420"
       xlink:href="#linearGradient4157-401-351"
       gradientUnits="userSpaceOnUse"
       gradientTransform="matrix(0.4908393,0,0,0.3803351,-57.357121,-48.338392)" />
    <linearGradient
       id="linearGradient20326">
      <stop
         id="stop20328"
         style="stop-color:#ffffff;stop-opacity:1"
         offset="0" />
      <stop
         id="stop20330"
         style="stop-color:#ffffff;stop-opacity:0"
         offset="1" />
    </linearGradient>
    <linearGradient
       x1="19.857143"
       y1="33.986282"
       x2="19.857143"
       y2="38.430866"
       id="linearGradient20332"
       xlink:href="#linearGradient20326"
       gradientUnits="userSpaceOnUse"
       gradientTransform="translate(0,-1.0175847)" />
  </defs>
  <g
     id="layer1">
    <g
       id="g3257"
       style="opacity:0.4">
      <rect
         width="40.799999"
         height="2.9999998"
         x="3.5999999"
         y="43"
         id="rect2879"
         style="fill:url(#linearGradient19619);fill-opacity:1;fill-rule:nonzero;stroke:none;stroke-width:1;marker:none;visibility:visible;display:inline;overflow:visible" />
      <path
         d="M 3.6,43.00013 C 3.6,43.00013 3.6,45.999965 3.6,45.999965 C 2.1108662,46.005612 0,45.327854 0,44.499854 C 0,43.671856 1.6617608,43.000131 3.6,43.00013 z"
         id="path2881"
         style="fill:url(#radialGradient19616);fill-opacity:1;fill-rule:nonzero;stroke:none;stroke-width:1;marker:none;visibility:visible;display:inline;overflow:visible" />
      <path
         d="M 44.4,43.00013 C 44.4,43.00013 44.4,45.999965 44.4,45.999965 C 45.889133,46.005565 48,45.327854 48,44.499854 C 48,43.671856 46.338239,43.000131 44.4,43.00013 z"
         id="path2883"
         style="fill:url(#radialGradient19613);fill-opacity:1;fill-rule:nonzero;stroke:none;stroke-width:1;marker:none;visibility:visible;display:inline;overflow:visible" />
    </g>
    <rect
       width="44.965565"
       height="35.922085"
       x="-46.457321"
       y="-44.502605"
       transform="matrix(-0.9999985,1.73317e-3,-9.6052607e-4,-0.9999995,0,0)"
       id="rect3580"
       style="fill:url(#linearGradient2425);fill-opacity:1;stroke:#c1c1c1;stroke-width:0.99999994;stroke-linecap:round;stroke-linejoin:miter;stroke-miterlimit:4;stroke-dasharray:none;stroke-opacity:0.96862745" />
    <rect
       width="38.92738"
       height="29.853907"
       rx="0"
       ry="0"
       x="-43.528759"
       y="-41.517406"
       transform="matrix(-0.9999929,3.7552302e-3,2.4409301e-3,-0.999997,0,0)"
       id="rect3582"
       style="fill:url(#linearGradient2420);fill-opacity:1;stroke:url(#linearGradient2422);stroke-width:1.00000966;stroke-linecap:round;stroke-linejoin:miter;stroke-miterlimit:4;stroke-dasharray:none;stroke-opacity:1" />
    <path
       d="M 8.0338911,20.959109 C 8.0338911,24.739343 8.0338911,28.516818 8.0338911,32.297052 C 7.8984495,32.865208 8.1787333,33.027453 8.7001391,32.920016 C 10.176969,32.846706 11.723553,33.132442 13.121603,32.51509 C 14.907025,31.740607 15.606414,29.210123 14.393531,27.624824 C 14.200266,26.84284 12.223803,26.604779 12.909615,26.160858 C 14.555332,25.08599 14.383748,22.26864 12.637059,21.395184 C 11.191212,20.730217 9.5694968,21.029992 8.0338911,20.959109 z M 9.1846831,22.111593 C 9.9824526,22.134353 10.793051,22.047413 11.577119,22.236185 C 12.733872,22.422992 13.200666,23.898937 12.606775,24.852634 C 11.91379,26.087099 10.381766,25.932904 9.1846831,25.942821 C 9.1846831,24.666232 9.1846831,23.388181 9.1846831,22.111593 L 9.1846831,22.111593 z M 9.1846831,27.157601 C 10.295321,27.185471 11.472628,27.062801 12.515923,27.531379 C 13.878786,28.064367 14.232994,30.069486 13.121603,31.051125 C 12.035895,32.024775 10.511319,31.664694 9.1846831,31.736385 C 9.1846831,30.20773 9.1846831,28.686255 9.1846831,27.157601 z M 17,32.968699 C 17.546241,28.973271 18.092481,24.977843 18.638721,20.982415 C 19.045253,21.000165 19.060325,21.673477 19.298906,21.972488 C 20.704498,24.920833 22.11009,27.869178 23.515682,30.817523 C 25.062927,27.539154 26.610174,24.260785 28.157419,20.982415 C 28.558193,21.002025 28.354936,21.745831 28.496558,22.076147 C 28.997705,25.706997 29.498853,29.337848 30,32.968699 C 29.641337,32.918129 29.115361,33.066849 28.854076,32.900279 C 28.480723,30.065717 28.10737,27.231153 27.734017,24.396591 C 26.37495,27.25396 25.015883,30.11133 23.656816,32.968699 C 23.178633,33.088415 23.186389,32.393085 22.952547,32.10298 C 21.713238,29.512455 20.473929,26.921929 19.234621,24.331404 C 18.860877,27.210502 18.487133,30.0896 18.11339,32.968699 C 17.74226,32.968699 17.37113,32.968699 17,32.968699 L 17,32.968699 z M 33,20.991874 C 33,24.959982 33,28.934714 33,32.90282 C 33.239599,33.06876 33.760809,32.91565 34.109404,32.96518 C 34.109404,31.454274 34.109404,29.923737 34.109404,28.412829 C 34.209896,28.097304 33.89574,27.329083 34.342963,27.383873 C 35.935501,27.309333 37.732723,27.644291 39.072528,26.510819 C 40.665428,25.067053 40.13028,21.836927 38.050708,21.241317 C 36.396086,20.834237 34.68557,21.042396 33,20.991874 z M 34.109404,22.145552 C 35.265769,22.181812 36.447482,22.033534 37.583591,22.301455 C 39.049761,22.72129 39.290519,25.135313 37.963124,25.887211 C 36.761322,26.457354 35.38646,26.180566 34.109404,26.230196 C 34.109404,24.873601 34.109404,23.502148 34.109404,22.145552 L 34.109404,22.145552 z"
       id="path20306"
       style="font-size:16.70700264px;font-style:normal;font-variant:normal;font-weight:normal;font-stretch:normal;fill:#ffffff;fill-opacity:1;stroke:none;font-family:Century Gothic;-inkscape-font-specification:Century Gothic" />
    <path
       d="M 8.0338911,44.992005 C 8.0338911,41.211771 8.0338911,37.434296 8.0338911,33.654062 C 7.8984495,33.085906 8.1787333,32.923661 8.7001391,33.031098 C 10.176969,33.104408 11.723553,32.818672 13.121603,33.436024 C 14.907025,34.210507 15.606414,36.740991 14.393531,38.32629 C 14.200266,39.108274 12.223803,39.346335 12.909615,39.790256 C 14.555332,40.865124 14.383748,43.682474 12.637059,44.55593 C 11.191212,45.220897 9.5694968,44.921122 8.0338911,44.992005 L 8.0338911,44.992005 z M 9.1846831,43.839521 C 9.9824526,43.816761 10.793051,43.903701 11.577119,43.714929 C 12.733872,43.528122 13.200666,42.052177 12.606775,41.09848 C 11.91379,39.864015 10.381766,40.01821 9.1846831,40.008293 C 9.1846831,41.284882 9.1846831,42.562933 9.1846831,43.839521 L 9.1846831,43.839521 z M 9.1846831,38.793513 C 10.295321,38.765643 11.472628,38.888313 12.515923,38.419735 C 13.878786,37.886747 14.232994,35.881628 13.121603,34.899989 C 12.035895,33.926339 10.511319,34.28642 9.1846831,34.214729 C 9.1846831,35.743384 9.1846831,37.264859 9.1846831,38.793513 z M 17,32.982415 C 17.546241,36.977843 18.092481,40.973271 18.638721,44.968699 C 19.045253,44.950949 19.060325,44.277637 19.298906,43.978626 C 20.704498,41.030281 22.11009,38.081936 23.515682,35.133591 C 25.062927,38.41196 26.610174,41.690329 28.157419,44.968699 C 28.558193,44.949089 28.354936,44.205283 28.496558,43.874967 C 28.997705,40.244117 29.498853,36.613266 30,32.982415 C 29.641337,33.032995 29.115361,32.884265 28.854076,33.050835 C 28.480723,35.885397 28.10737,38.719961 27.734017,41.554523 C 26.37495,38.697154 25.015883,35.839784 23.656816,32.982415 C 23.178633,32.862699 23.186389,33.558029 22.952547,33.848134 C 21.713238,36.438659 20.473929,39.029185 19.234621,41.61971 C 18.860877,38.740612 18.487133,35.861514 18.11339,32.982415 C 17.74226,32.982415 17.37113,32.982415 17,32.982415 L 17,32.982415 z M 33,44.95924 C 33,40.991132 33,37.0164 33,33.048294 C 33.239599,32.882354 33.760809,33.035464 34.109404,32.985934 C 34.109404,34.49684 34.109404,36.027377 34.109404,37.538285 C 34.209896,37.85381 33.89574,38.622031 34.342963,38.567241 C 35.935501,38.641781 37.732723,38.306823 39.072528,39.440295 C 40.665428,40.884061 40.13028,44.114187 38.050708,44.709797 C 36.396086,45.116877 34.68557,44.908718 33,44.95924 z M 34.109404,43.805562 C 35.265769,43.769302 36.447482,43.91758 37.583591,43.649659 C 39.049761,43.229824 39.290519,40.815801 37.963124,40.063903 C 36.761322,39.49376 35.38646,39.770548 34.109404,39.720918 C 34.109404,41.077513 34.109404,42.448966 34.109404,43.805562 z"
       id="path20311"
       style="font-size:16.70700264px;font-style:normal;font-variant:normal;font-weight:normal;font-stretch:normal;opacity:0.3;fill:url(#linearGradient20332);fill-opacity:1;stroke:none;font-family:Century Gothic;-inkscape-font-specification:Century Gothic" />
  </g>
</svg>
